build/assets/fonts/1560c69d3cf081291eb13f477dc9e043.svg

<svg width="100" height="60" viewBox="0 0 100 60" version="1.1" xmlns="http://www.w3.org/2000/svg" xmlns:xlink="http://www.w3.org/1999/xlink"><title>Sage-dark</title><desc>Created with Sketch.</desc><g id="Dark-Payment-badges" stroke="none" stroke-width="1" fill="none" fill-rule="evenodd" transform="translate(-290.000000, -789.000000)"><g id="Sage-dark" transform="translate(290.000000, 789.000000)"><rect id="Rectangle" fill="#008469" x="0" y="0" width="100" height="60" rx="4"/><path d="M46.0970162,32.2708046 L46.0970162,31.0478832 L41.3827145,31.0478832 C39.0695745,31.0478832 37.9941007,31.8436534 37.9941007,33.0665748 C37.9941007,34.2010277 39.0253403,35.1880329 41.6919076,35.1880329 C44.9773081,35.1875861 46.0970162,34.8931377 46.0970162,32.2708046 L46.0970162,32.2708046 L46.0970162,32.2708046 Z M36.0196434,24.0642291 L34.3548261,25.7437912 C32.8079668,24.815765 31.2316179,24.1821871 29.1101599,24.1821871 C26.5905933,24.1821871 25.7510356,25.0369364 25.7510356,26.2004319 C25.7510356,26.9372231 26.3551239,27.6592695 28.3295812,27.7919723 L31.5707474,27.9979521 C33.5742474,28.1011654 34.9888507,28.6757642 35.9021322,29.5595562 C36.9628612,28.6462747 38.5539548,28.0712291 40.6459233,28.0712291 L46.0970162,28.0712291 L46.0970162,26.3474327 C46.0970162,24.7563391 44.9035843,24.1964851 42.0752714,24.1964851 C40.0275371,24.1964851 38.7014024,24.8005734 37.6701628,25.7585359 L36.0196434,24.0642291 L36.0196434,24.0642291 Z M65.3085439,28.3223368 L74.4136562,28.3223368 C74.4136562,25.4051085 72.2479638,23.9614626 69.8463553,23.9614626 C67.4447467,23.9614626 65.3085439,25.3903638 65.3085439,28.3223368 L65.3085439,28.3223368 L65.3085439,28.3223368 Z M51.6808118,29.6042373 C51.7250461,32.3592732 51.7692804,32.7864244 52.4761352,33.5522583 C53.0359892,34.1567934 54.2441659,34.8636482 55.8794937,34.8636482 C57.4705873,34.8636482 58.5018268,34.1563466 59.0616809,33.5522583 C59.7689825,32.7864244 59.8570043,32.3145921 59.8570043,29.6042373 C59.8570043,26.8639461 59.7689825,26.3925606 59.0616809,25.6262799 C58.5018268,25.0221916 57.4701405,24.31489 55.8794937,24.31489 C54.2441659,24.31489 53.0359892,25.0221916 52.4761352,25.6262799 C51.7692804,26.3921138 51.6513223,26.8344566 51.6808118,29.6042373 L51.6808118,29.6042373 L51.6808118,29.6042373 Z M49.2059263,23.5633541 C49.3386292,23.4016085 49.4708852,23.2394162 49.6335243,23.0624791 C50.5168695,22.1054101 52.2554106,21 54.8040199,21 C56.8075199,21 58.3990603,21.6630674 59.8574511,22.9892021 L59.8574511,21.2064266 L63.8059189,21.2064266 L63.8059189,23.0481811 C65.3675229,21.5745988 67.4599383,21 69.4192041,21 C73.735844,21 77.4483957,23.9614626 77.4631405,28.9116804 C77.4778852,29.7659828 77.3751187,31.2837994 77.3751187,31.2837994 L65.3085439,31.2837994 C65.3085439,34.0240906 67.1797879,35.0553301 69.8758448,35.0553301 C71.3784698,35.0553301 73.2792033,34.377518 74.4284009,33.3462784 L77.0802235,35.2760547 C75.1504473,37.1915329 72.5719017,38.2227725 69.9495686,38.2227725 C67.7990678,38.2227725 65.4859278,37.7218975 63.8059189,36.1893361 L63.8059189,37.6039394 C63.8059189,42.6721153 59.7841741,45 55.3053417,45 C52.8009667,45 50.2519106,43.8655472 48.5133694,42.185985 L51.5633006,40.0940165 C52.5208163,40.9188294 53.8764405,41.6113862 55.3790655,41.6113862 C58.0161434,41.6113862 59.8574511,40.3294858 59.8574511,37.9721116 L59.8574511,36.2483152 C58.6349765,37.4122575 56.8079668,38.2080277 54.8040199,38.2080277 C52.5940933,38.2080277 51.0029997,37.382768 50.0307392,36.5432103 L50.0307392,38.2375172 L46.0970162,38.2375172 L46.0970162,36.5284656 L46.0232924,36.5284656 C45.2132242,37.6924079 43.8576,38.2227725 41.1910326,38.2227725 C38.7009556,38.2227725 36.8006688,37.5007261 35.6367265,36.3367837 C34.163591,37.5449603 31.8209615,38.1932829 29.1396494,38.1932829 C25.972207,38.1932829 23.040234,37.2062777 20.5354121,35.1875861 L23.2757033,32.8601482 C24.9700102,34.2890494 26.8265094,35.0258406 29.4488425,35.0258406 C31.6882587,35.0258406 33.3088418,34.2890494 33.3088418,32.8601482 C33.3088418,31.6667163 32.2628575,31.3132889 30.921978,31.2100756 L27.4448957,30.9451167 C24.2041763,30.7087538 21.8025678,29.059128 21.8025678,26.1713892 C21.8025678,22.7532859 24.9700102,21 29.1101599,21 C32.0863672,21 34.2221232,21.6778121 36.0048987,22.7680307 C37.4489914,21.4718323 39.3345334,21.0147448 41.8835895,21.0147448 C45.286948,21.0147448 47.9387706,21.7073016 49.2059263,23.5633541 L49.2059263,23.5633541 L49.2059263,23.5633541 Z" id="Shape" fill="#FFF"/></g></g></svg>

<svg width="100" height="60" xmlns="http://www.w3.org/2000/svg"><g fill="none" fill-rule="evenodd"><rect fill="#008469" width="100" height="60" rx="4"/><path d="M46.097 32.27v-1.222h-4.714c-2.313 0-3.389.796-3.389 2.019 0 1.134 1.031 2.121 3.698 2.121 3.285 0 4.405-.295 4.405-2.917zM36.02 24.065l-1.665 1.68c-1.547-.928-3.123-1.562-5.245-1.562-2.52 0-3.359.855-3.359 2.018 0 .737.604 1.46 2.579 1.592l3.24.206c2.004.103 3.419.678 4.332 1.562 1.06-.914 2.652-1.489 4.744-1.489h5.451v-1.724c0-1.59-1.193-2.15-4.022-2.15-2.047 0-3.374.604-4.405 1.562l-1.65-1.695zm29.289 4.258h9.105c0-2.917-2.166-4.36-4.568-4.36-2.401 0-4.537 1.428-4.537 4.36zM51.68 29.604c.044 2.755.088 3.182.795 3.948.56.605 1.768 1.312 3.403 1.312 1.592 0 2.623-.708 3.183-1.312.707-.766.795-1.237.795-3.948 0-2.74-.088-3.211-.795-3.978-.56-.604-1.592-1.311-3.183-1.311-1.635 0-2.843.707-3.403 1.311-.707.766-.825 1.208-.795 3.978zm-2.475-6.04c.133-.162.265-.325.428-.502.883-.957 2.621-2.062 5.17-2.062 2.004 0 3.595.663 5.053 1.99v-1.784h3.949v1.842C65.368 21.575 67.46 21 69.419 21c4.317 0 8.03 2.961 8.044 7.912.015.854-.088 2.372-.088 2.372H65.31c0 2.74 1.87 3.771 4.567 3.771 1.502 0 3.403-.677 4.552-1.709l2.652 1.93a10.133 10.133 0 0 1-7.13 2.947c-2.15 0-4.464-.501-6.144-2.034v1.415c0 5.068-4.022 7.396-8.5 7.396-2.505 0-5.054-1.134-6.793-2.814l3.05-2.092c.958.825 2.313 1.517 3.816 1.517 2.637 0 4.478-1.282 4.478-3.639v-1.724c-1.222 1.164-3.049 1.96-5.053 1.96-2.21 0-3.801-.825-4.773-1.665v1.695h-3.934v-1.71h-.074c-.81 1.164-2.165 1.695-4.832 1.695-2.49 0-4.39-.722-5.554-1.886-1.473 1.208-3.816 1.856-6.497 1.856-3.168 0-6.1-.987-8.605-3.005l2.74-2.328c1.695 1.429 3.552 2.166 6.174 2.166 2.24 0 3.86-.737 3.86-2.166 0-1.193-1.046-1.547-2.387-1.65l-3.477-.265c-3.24-.236-5.642-1.886-5.642-4.774 0-3.418 3.167-5.171 7.307-5.171 2.976 0 5.112.678 6.895 1.768 1.444-1.296 3.33-1.753 5.879-1.753 3.403 0 6.055.692 7.322 2.548z" fill="#FFF"/></g></svg>
